mobile/assets/icons/svgs/custom/mobile-dark.svg

<svg fill="none" height="500" viewBox="0 0 500 500" width="500" xmlns="http://www.w3.org/2000/svg"><g fill="#fff"><path d="m410.84 230.94-173.36-144.4601c-1.299-1.0809-2.935-1.6728-4.625-1.6728s-3.326.5919-4.625 1.6728l-173.36 144.4601c-1.3491 1.26-2.1641 2.99-2.2775 4.833-.1134 1.842.4835 3.659 1.668 5.075s2.8666 2.325 4.7004 2.539 3.68-.282 5.1591-1.387l24.27-20.23v180.86c.0027 1.916.7656 3.752 2.1212 5.106s3.1931 2.114 5.1088 2.114h50.28v-14.45h-43.07v-185.62l130-108.35 130 108.35v29.36h14.45v-17.33l24.3 20.19c1.478 1.171 3.356 1.718 5.231 1.525 1.876-.194 3.602-1.113 4.81-2.561s1.803-3.311 1.657-5.191-1.021-3.629-2.438-4.873z"/><path d="m447.26 332.34c-.078-4.338-1.764-8.493-4.73-11.66l-37-39.43c-1.633-1.729-3.602-3.107-5.785-4.049-2.184-.942-4.537-1.429-6.915-1.431h-48.13v-18c0-10.42 0-27.87-20.05-27.87h-134.65c-16.73 0-30.34 12.5-30.34 27.87v125.23c.003 1.364.546 2.672 1.512 3.635.965.964 2.274 1.505 3.638 1.505h20.3c1.363 0 2.67-.542 3.634-1.505.964-.964 1.506-2.272 1.506-3.635 0-2.88.567-5.732 1.669-8.392 1.102-2.661 2.718-5.078 4.754-7.115 2.036-2.036 4.454-3.652 7.115-4.754 2.66-1.102 5.512-1.669 8.392-1.669s5.731.567 8.392 1.669 5.078 2.718 7.115 4.754c2.036 2.037 3.651 4.454 4.754 7.115 1.102 2.66 1.669 5.512 1.669 8.392-.001.675.131 1.344.388 1.969.258.624.637 1.191 1.114 1.669.478.477 1.045.856 1.669 1.113.625.258 1.294.39 1.969.389h127.2c1.363 0 2.671-.542 3.634-1.505.964-.964 1.506-2.272 1.506-3.635-.062-2.919.459-5.82 1.532-8.535 1.074-2.715 2.679-5.187 4.721-7.274 2.042-2.086 4.481-3.743 7.172-4.875 2.691-1.131 5.581-1.714 8.5-1.714s5.809.583 8.5 1.714c2.691 1.132 5.129 2.789 7.171 4.875 2.043 2.087 3.648 4.559 4.721 7.274 1.074 2.715 1.595 5.616 1.533 8.535 0 1.363.541 2.671 1.505 3.635.964.963 2.272 1.505 3.635 1.505h22c.68.002 1.354-.131 1.983-.392.628-.261 1.198-.645 1.677-1.128.959-.976 1.494-2.291 1.49-3.66zm-21.95 45.48c-1.211-7.561-5.077-14.443-10.904-19.412-5.827-4.968-13.234-7.697-20.891-7.697-7.658 0-15.065 2.729-20.892 7.697-5.827 4.969-9.692 11.851-10.903 19.412h-117.72c-1.218-7.557-5.087-14.434-10.914-19.397-5.827-4.964-13.231-7.69-20.886-7.69s-15.059 2.726-20.886 7.69c-5.828 4.963-9.697 11.84-10.914 19.397h-10.4v-120c0-9.7 9-17.59 20-17.59h134.65c7.94 0 9.76 3.3 9.76 17.59v23.13c0 .676.133 1.345.392 1.969.259.625.639 1.192 1.117 1.669.478.478 1.046.856 1.671 1.114.625.257 1.294.389 1.97.388h53.31c.973 0 1.935.198 2.829.581.894.384 1.7.945 2.371 1.649l37 39.46c1.199 1.288 1.882 2.971 1.92 4.73l.42 45.35z" stroke="#fff" stroke-miterlimit="10" stroke-width="4.2"/><path d="m212.17 415.19c-6.376 0-12.609-1.891-17.91-5.435-5.301-3.543-9.432-8.579-11.871-14.47-2.438-5.892-3.074-12.374-1.827-18.628 1.247-6.253 4.321-11.995 8.832-16.501 4.512-4.506 10.258-7.573 16.513-8.812 6.254-1.239 12.736-.595 18.625 1.851 5.888 2.445 10.919 6.583 14.456 11.888 3.536 5.306 5.42 11.541 5.412 17.917-.013 8.54-3.414 16.726-9.457 22.761s-14.233 9.426-22.773 9.429zm0-54.18c-4.353 0-8.609 1.292-12.228 3.711-3.619 2.42-6.439 5.859-8.102 9.882-1.664 4.022-2.097 8.448-1.244 12.717s2.954 8.189 6.035 11.264c3.082 3.075 7.007 5.166 11.278 6.009 4.271.844 8.696.401 12.715-1.272s7.451-4.5 9.863-8.125c2.411-3.624 3.693-7.883 3.683-12.236-.011-5.828-2.333-11.413-6.458-15.53-4.124-4.118-9.714-6.43-15.542-6.43z" stroke="#fff" stroke-miterlimit="10" stroke-width="4.2"/><path d="m393.54 415.19c-6.378.01-12.616-1.873-17.924-5.41-5.307-3.537-9.446-8.57-11.892-14.461-2.446-5.89-3.089-12.374-1.848-18.631 1.241-6.256 4.311-12.004 8.82-16.515 4.51-4.51 10.256-7.582 16.512-8.825s12.741-.602 18.632 1.842c5.892 2.444 10.925 6.581 14.464 11.888 3.539 5.306 5.424 11.544 5.416 17.922-.018 8.53-3.414 16.705-9.445 22.738-6.031 6.032-14.205 9.431-22.735 9.452zm0-54.18c-4.356-.02-8.619 1.254-12.251 3.66-3.631 2.405-6.466 5.835-8.146 9.854-1.681 4.018-2.13 8.446-1.292 12.72.839 4.274 2.927 8.204 6.001 11.29 3.074 3.087 6.994 5.191 11.265 6.047s8.7.425 12.726-1.239c4.025-1.664 7.466-4.485 9.887-8.106 2.421-3.622 3.712-7.88 3.71-12.236 0-5.818-2.304-11.398-6.408-15.521s-9.675-6.453-15.492-6.479z" stroke="#fff" stroke-miterlimit="10" stroke-width="4.2"/><path d="m374 253.26h-2c-3.529.003-6.913 1.406-9.409 3.901-2.495 2.496-3.898 5.88-3.901 9.409v7.37.5c.122 3.164 1.367 6.18 3.51 8.51h21.63c2.152-2.325 3.397-5.344 3.51-8.51 0-.16 0-.33 0-.5v-7.37c-.001-1.75-.348-3.483-1.019-5.099s-1.654-3.084-2.893-4.32-2.709-2.216-4.327-2.884c-1.618-.667-3.351-1.01-5.101-1.007zm0 25.49h-2c-1.188-.003-2.333-.445-3.215-1.24-.882-.796-1.439-1.889-1.565-3.07 0-.16 0-.33 0-.5v-7.37c0-.63.124-1.254.365-1.837.242-.582.595-1.111 1.041-1.557s.975-.799 1.557-1.041c.582-.241 1.207-.365 1.837-.365h2c1.274 0 2.496.505 3.398 1.405.901.9 1.409 2.121 1.412 3.395v7.37.5c-.124 1.191-.688 2.292-1.582 3.089-.893.797-2.051 1.232-3.248 1.221z" stroke="#fff" stroke-miterlimit="10" stroke-width="4.2"/><path d="m440.14 331.07h-100.58c-1.363 0-2.671-.542-3.635-1.505-.964-.964-1.505-2.272-1.505-3.635s.541-2.671 1.505-3.634c.964-.964 2.272-1.506 3.635-1.506h100.58c1.363 0 2.671.542 3.634 1.506.964.963 1.506 2.271 1.506 3.634s-.542 2.671-1.506 3.635c-.963.963-2.271 1.505-3.634 1.505z" stroke="#fff" stroke-miterlimit="10" stroke-width="4.2"/><path d="m339.56 388.1c-1.363 0-2.671-.541-3.635-1.505s-1.505-2.272-1.505-3.635v-102c0-1.363.541-2.671 1.505-3.634.964-.964 2.272-1.506 3.635-1.506s2.67.542 3.634 1.506c.964.963 1.506 2.271 1.506 3.634v102.04c-.011 1.356-.557 2.653-1.52 3.609-.962.955-2.264 1.491-3.62 1.491z" stroke="#fff" stroke-miterlimit="10" stroke-width="4.2"/></g><path d="m248.85 339.96c19.926 0 36.08-16.154 36.08-36.08s-16.154-36.08-36.08-36.08-36.08 16.154-36.08 36.08 16.154 36.08 36.08 36.08z" fill="#daa900"/><path d="m270.5 296.66v14.43h-14.43v14.43h-14.43v-14.43h-14.43v-14.43h14.43v-14.43h14.43v14.43z" fill="#fff"/></svg>

<svg width="500" height="500" viewBox="0 0 500 500" fill="none" xmlns="http://www.w3.org/2000/svg">
<path d="M410.84 230.94L237.48 86.4799C236.181 85.399 234.545 84.8071 232.855 84.8071C231.165 84.8071 229.529 85.399 228.23 86.4799L54.87 230.94C53.5209 232.2 52.7059 233.93 52.5925 235.773C52.4791 237.615 53.076 239.432 54.2605 240.848C55.445 242.264 57.1271 243.173 58.9609 243.387C60.7947 243.601 62.6409 243.105 64.12 242L88.39 221.77V402.63C88.3927 404.546 89.1556 406.382 90.5112 407.736C91.8668 409.09 93.7043 409.85 95.62 409.85H145.9V395.4H102.83V209.78L232.83 101.43L362.83 209.78V239.14H377.28V221.81L401.58 242C403.058 243.171 404.936 243.718 406.811 243.525C408.687 243.331 410.413 242.412 411.621 240.964C412.829 239.516 413.424 237.653 413.278 235.773C413.132 233.893 412.257 232.144 410.84 230.9V230.94Z" fill="white"/>
<path d="M447.26 332.34C447.182 328.002 445.496 323.847 442.53 320.68L405.53 281.25C403.897 279.521 401.928 278.143 399.745 277.201C397.561 276.259 395.208 275.772 392.83 275.77H344.7V257.77C344.7 247.35 344.7 229.9 324.65 229.9H190C173.27 229.9 159.66 242.4 159.66 257.77V383C159.663 384.364 160.206 385.672 161.172 386.635C162.137 387.599 163.446 388.14 164.81 388.14H185.11C186.473 388.14 187.78 387.598 188.744 386.635C189.708 385.671 190.25 384.363 190.25 383C190.25 380.12 190.817 377.268 191.919 374.608C193.021 371.947 194.637 369.53 196.673 367.493C198.709 365.457 201.127 363.841 203.788 362.739C206.448 361.637 209.3 361.07 212.18 361.07C215.06 361.07 217.911 361.637 220.572 362.739C223.233 363.841 225.65 365.457 227.687 367.493C229.723 369.53 231.338 371.947 232.441 374.608C233.543 377.268 234.11 380.12 234.11 383C234.109 383.675 234.241 384.344 234.498 384.969C234.756 385.593 235.135 386.16 235.612 386.638C236.09 387.115 236.657 387.494 237.281 387.751C237.906 388.009 238.575 388.141 239.25 388.14H366.45C367.813 388.14 369.121 387.598 370.084 386.635C371.048 385.671 371.59 384.363 371.59 383C371.528 380.081 372.049 377.18 373.122 374.465C374.196 371.75 375.801 369.278 377.843 367.191C379.885 365.105 382.324 363.448 385.015 362.316C387.706 361.185 390.596 360.602 393.515 360.602C396.434 360.602 399.324 361.185 402.015 362.316C404.706 363.448 407.144 365.105 409.186 367.191C411.229 369.278 412.834 371.75 413.907 374.465C414.981 377.18 415.502 380.081 415.44 383C415.44 384.363 415.981 385.671 416.945 386.635C417.909 387.598 419.217 388.14 420.58 388.14H442.58C443.26 388.142 443.934 388.009 444.563 387.748C445.191 387.487 445.761 387.103 446.24 386.62C447.199 385.644 447.734 384.329 447.73 382.96L447.26 332.34ZM425.31 377.82C424.099 370.259 420.233 363.377 414.406 358.408C408.579 353.44 401.172 350.711 393.515 350.711C385.857 350.711 378.45 353.44 372.623 358.408C366.796 363.377 362.931 370.259 361.72 377.82H244C242.782 370.263 238.913 363.386 233.086 358.423C227.259 353.459 219.855 350.733 212.2 350.733C204.545 350.733 197.141 353.459 191.314 358.423C185.486 363.386 181.617 370.263 180.4 377.82H170V257.82C170 248.12 179 240.23 190 240.23H324.65C332.59 240.23 334.41 243.53 334.41 257.82V280.95C334.41 281.626 334.543 282.295 334.802 282.919C335.061 283.544 335.441 284.111 335.919 284.588C336.397 285.066 336.965 285.444 337.59 285.702C338.215 285.959 338.884 286.091 339.56 286.09H392.87C393.843 286.09 394.805 286.288 395.699 286.671C396.593 287.055 397.399 287.616 398.07 288.32L435.07 327.78C436.269 329.068 436.952 330.751 436.99 332.51L437.41 377.86L425.31 377.82Z" fill="white" stroke="white" stroke-width="4.2" stroke-miterlimit="10"/>
<path d="M212.17 415.19C205.794 415.19 199.561 413.299 194.26 409.755C188.959 406.212 184.828 401.176 182.389 395.285C179.951 389.393 179.315 382.911 180.562 376.657C181.809 370.404 184.883 364.662 189.394 360.156C193.906 355.65 199.652 352.583 205.907 351.344C212.161 350.105 218.643 350.749 224.532 353.195C230.42 355.64 235.451 359.778 238.988 365.083C242.524 370.389 244.408 376.624 244.4 383C244.387 391.54 240.986 399.726 234.943 405.761C228.9 411.796 220.71 415.187 212.17 415.19ZM212.17 361.01C207.817 361.01 203.561 362.302 199.942 364.721C196.323 367.141 193.503 370.58 191.84 374.603C190.176 378.625 189.743 383.051 190.596 387.32C191.449 391.589 193.55 395.509 196.631 398.584C199.713 401.659 203.638 403.75 207.909 404.593C212.18 405.437 216.605 404.994 220.624 403.321C224.643 401.648 228.075 398.821 230.487 395.196C232.898 391.572 234.18 387.313 234.17 382.96C234.159 377.132 231.837 371.547 227.712 367.43C223.588 363.312 217.998 361 212.17 361V361.01Z" fill="white" stroke="white" stroke-width="4.2" stroke-miterlimit="10"/>
<path d="M393.54 415.19C387.162 415.2 380.924 413.317 375.616 409.78C370.309 406.243 366.17 401.21 363.724 395.319C361.278 389.429 360.635 382.945 361.876 376.688C363.117 370.432 366.187 364.684 370.696 360.173C375.206 355.663 380.952 352.591 387.208 351.348C393.464 350.105 399.949 350.746 405.84 353.19C411.732 355.634 416.765 359.771 420.304 365.078C423.843 370.384 425.728 376.622 425.72 383C425.702 391.53 422.306 399.705 416.275 405.738C410.244 411.77 402.07 415.169 393.54 415.19ZM393.54 361.01C389.184 360.99 384.921 362.264 381.289 364.67C377.658 367.075 374.823 370.505 373.143 374.524C371.462 378.542 371.013 382.97 371.851 387.244C372.69 391.518 374.778 395.448 377.852 398.534C380.926 401.621 384.846 403.725 389.117 404.581C393.388 405.437 397.817 405.006 401.843 403.342C405.868 401.678 409.309 398.857 411.73 395.236C414.151 391.614 415.442 387.356 415.44 383C415.44 377.182 413.136 371.602 409.032 367.479C404.928 363.356 399.357 361.026 393.54 361V361.01Z" fill="white" stroke="white" stroke-width="4.2" stroke-miterlimit="10"/>
<path d="M374 253.26H372C368.471 253.263 365.087 254.666 362.591 257.161C360.096 259.657 358.693 263.041 358.69 266.57V273.94V274.44C358.812 277.604 360.057 280.62 362.2 282.95H383.83C385.982 280.625 387.227 277.606 387.34 274.44C387.34 274.28 387.34 274.11 387.34 273.94V266.57C387.339 264.82 386.992 263.087 386.321 261.471C385.65 259.855 384.667 258.387 383.428 257.151C382.189 255.915 380.719 254.935 379.101 254.267C377.483 253.6 375.75 253.257 374 253.26ZM374 278.75H372C370.812 278.747 369.667 278.305 368.785 277.51C367.903 276.714 367.346 275.621 367.22 274.44C367.22 274.28 367.22 274.11 367.22 273.94V266.57C367.22 265.94 367.344 265.316 367.585 264.733C367.827 264.151 368.18 263.622 368.626 263.176C369.072 262.73 369.601 262.377 370.183 262.135C370.765 261.894 371.39 261.77 372.02 261.77H374.02C375.294 261.77 376.516 262.275 377.418 263.175C378.319 264.075 378.827 265.296 378.83 266.57V273.94V274.44C378.706 275.631 378.142 276.732 377.248 277.529C376.355 278.326 375.197 278.761 374 278.75Z" fill="white" stroke="white" stroke-width="4.2" stroke-miterlimit="10"/>
<path d="M440.14 331.07H339.56C338.197 331.07 336.889 330.528 335.925 329.565C334.961 328.601 334.42 327.293 334.42 325.93C334.42 324.567 334.961 323.259 335.925 322.296C336.889 321.332 338.197 320.79 339.56 320.79H440.14C441.503 320.79 442.811 321.332 443.774 322.296C444.738 323.259 445.28 324.567 445.28 325.93C445.28 327.293 444.738 328.601 443.774 329.565C442.811 330.528 441.503 331.07 440.14 331.07Z" fill="white" stroke="white" stroke-width="4.2" stroke-miterlimit="10"/>
<path d="M339.56 388.1C338.197 388.1 336.889 387.559 335.925 386.595C334.961 385.631 334.42 384.323 334.42 382.96V280.96C334.42 279.597 334.961 278.289 335.925 277.326C336.889 276.362 338.197 275.82 339.56 275.82C340.923 275.82 342.23 276.362 343.194 277.326C344.158 278.289 344.7 279.597 344.7 280.96V383C344.689 384.356 344.143 385.653 343.18 386.609C342.218 387.564 340.916 388.1 339.56 388.1Z" fill="white" stroke="white" stroke-width="4.2" stroke-miterlimit="10"/>
<path d="M248.85 339.96C268.776 339.96 284.93 323.806 284.93 303.88C284.93 283.954 268.776 267.8 248.85 267.8C228.924 267.8 212.77 283.954 212.77 303.88C212.77 323.806 228.924 339.96 248.85 339.96Z" fill="#DAA900"/>
<path d="M270.5 296.66V311.09H256.07V325.52H241.64V311.09H227.21V296.66H241.64V282.23H256.07V296.66H270.5Z" fill="white"/>
</svg>
